X:1
T:Title
%%score { ( 1 4 ) | ( 2 3 5 ) }
L:1/8
M:3/4
K:F
V:1 treble nm="Grand Piano"
V:4 treble 
V:2 bass 
V:3 bass 
V:5 bass 
V:1
 z2 z[Q:1/4=85] A _A[C=A] | [A,F]3 A [=B,_A]=A | [DB]4[K:bass][K:treble] z2 | [CA]3 _A [C=A]>A | %4
 [EG]4 z2 | [A,F]3 A [DB]c | [DB]4[K:bass][K:treble] z2 | [CA]3 [A,F] [B,EG]>[A,FA] | %8
[M:15/16] [EB]3/2- [EB]3 z3/2 z/ [CEG] | %9
[M:13/16] A/-A/-A/-A-<A z/ z/ z/[Q:1/4=74] z/ z[Q:1/4=82][Q:1/4=80][Q:1/4=77][Q:1/4=72][Q:1/4=69][Q:1/4=66] | %10
[M:9/16] [F,A,CF]4- [F,A,CF]/ |] %11
V:2
 z2 z C =B,F, | F,F, z C z C | [B,,F,]B,, B,,[K:treble]F E[K:bass][B,,F,] | F,F, z =B, z z/ F/ | %4
 C,C, C,D C[C,E,B,] | F,F, z C z _E | [B,,F,]B,, B,,D CF, | F,F, F,F, C,>C, | %8
[M:15/16] [C,G,]3/2- [C,G,]3[K:treble] CF/-F/[K:bass]C, |[M:13/16] F,F,F,3/2D,C,C, | %10
[M:9/16] F,,4- F,,/ |] %11
V:3
 x6 | z2 F,2 F,2 | x3[K:treble] x2[K:bass] x | z2 z2 z A, | x6 | z2 F,2 F,2 | x6 | x6 | %8
[M:15/16] x9/2[K:treble] x2[K:bass] x |[M:13/16] x13/2 |[M:9/16] x9/2 |] %11
V:4
 x6 | x6 | z[K:bass] F, F,[K:treble]d c[DB] | x6 | CC CB AG | x6 | %6
 z[K:bass] F, F,[K:treble]B A[=B,_A] | x6 |[M:15/16] x15/2 | %9
[M:13/16] [CF][CF][CF]3/2[=B,FG][CFA][_B,EG] |[M:9/16] x9/2 |] %11
V:5
 x6 | x6 | x3[K:treble] x2[K:bass] x | z2 F,2 F,2 | x6 | x6 | x6 | x6 | %8
[M:15/16] x9/2[K:treble] x2[K:bass] x |[M:13/16] x13/2 |[M:9/16] x9/2 |] %11

